X:67
T:Gravel Walks to Gran(n)ie (r)
B:NFID.161
067grav_w
S:F&MB
Z:Robinson/Black
N:The first setting of this tune is per the source, i.e. in A mix.
I've added a second setting in Am (actually A dorian since all F's
are sharp) which is closer to the current popular setting. [BB]
L:1/8
M:C
R:reel
Q:360
K:A=G
%A
AAeA BAeA|Aaed BAGB|AAeA BAfa|gedc BAGB|
AAeA BAeA|Aaed BAGB|AAeA BAfa|gedc BAGB||
%B
(3AAA aA gAfA|(3AAA eA BAGB|(3AAA aA gAfa|\
gedc BAGB|
(3AAA aA gAfA|(3AAA eA BAGB|ABcd egfa|gedc BAGB:|
%C
cA (3AAA AGAB|cA (3AAA BGBd|cA (3AAA A2fa|fage dBGB|
cA (3AAA AGAB|cA (3AAA BGBd|cA (3AAA A2eg|fage dBGB||
%D
(3=ccc =gc acgc|(3=ccc =gc BA=GB|(3=ccc =gc acef|=ged=c BA=GB|
(3=ccc =gc acgc|(3=ccc =gc BA=GB|AB=cd e=gfa|=ged=c BA=GB:|
= = =
P:setting in Am
K:Am
%A
AAeA BAeA|Aaed BAGB|AAeA BA^fa|gedc BAGB|
AAeA BAeA|Aaed BAGB|AAeA BA^fa|gedc BAGB||
%B
(3AAA aA gA^fA|(3AAA eA BAGB|(3AAA aA gA^fa|\
gedc BAGB|
(3AAA aA gA^fA|(3AAA eA BAGB|ABcd eg^fa|gedc BAGB:|
%C
cA (3AAA A^GAB|cA (3AAA BGBd|cA (3AAA A2^fa|^fage dBGB|
cA (3AAA A^GAB|cA (3AAA BGBd|cA (3AAA A2eg|^fage dBGB||
%D
(3ccc gc acgc|(3ccc gc BAGB|(3ccc gc ace^f|gedc BAGB|
(3ccc gc acgc|(3ccc gc BAGB|ABcd eg^fa|gedc BAGB:|

%%%

